src/22x22/places/folder-gruvbox-original-aqua-visiting.svg

<?xml version="1.0" encoding="UTF-8"?>
<svg width="22" height="22" version="1" xmlns="http://www.w3.org/2000/svg">
 <rect x="1" y="8.5" width="20" height="12" rx="1" ry="1" opacity=".2"/>
 <path d="m1 16c0 0.554 0.446 1 1 1h18c0.554 0 1-0.446 1-1v-11c0-0.554-0.446-1-1-1h-9c-1.5 0-2-2-3.5-2h-5.5c-0.554 0-1 0.446-1 1" fill="#427b58"/>
 <rect x="1" y="7.5" width="20" height="12" rx="1" ry="1" opacity=".2"/>
 <rect x="3" y="6" width="16" height="8" rx="1" ry="1" fill="#D5D7B3"/>
 <rect x="1" y="8" width="20" height="12" rx="1" ry="1" fill="#8ec07c"/>
 <path d="m2 2c-0.554 0-1 0.446-1 1v0.5c0-0.554 0.446-1 1-1h5.5c1.5 0 2 2 3.5 2h9c0.554 0 1 0.446 1 1v-0.5c0-0.554-0.446-1-1-1h-9c-1.5 0-2-2-3.5-2z" fill="#D5D7B3" opacity=".1"/>
 <path d="m2 8c-0.554 0-1 0.446-1 1v0.654l17.918 10.346h1.082c0.554 0 1-0.446 1-1v-0.299l-18.537-10.701zm3.9277 0 15.072 8.701v-2.5l-10.742-6.201zm7.7953 0 7.277 4.201v-2.5l-2.947-1.701zm-12.723 3.654v2.5l10.125 5.846h4.328zm0 4.5v2.5l2.3301 1.346h4.3301z" fill="#313D38"/>
</svg>

<svg xmlns="http://www.w3.org/2000/svg" width="22" height="22" version="1">
 <rect style="opacity:0.2" width="20" height="12" x="1" y="8.5" rx="1" ry="1"/>
 <path style="fill:#427b58" d="M 1,16 C 1,16.554 1.446,17 2,17 H 20 C 20.554,17 21,16.554 21,16 V 5 C 21,4.446 20.554,4 20,4 H 11 C 9.5,4 9,2 7.5,2 H 2 C 1.446,2 1,2.446 1,3"/>
 <rect style="opacity:0.2" width="20" height="12" x="1" y="7.5" rx="1" ry="1"/>
 <rect style="fill:#D5D7B3" width="16" height="8" x="3" y="6" rx="1" ry="1"/>
 <rect style="fill:#8ec07c" width="20" height="12" x="1" y="8" rx="1" ry="1"/>
 <path style="opacity:0.1;fill:#D5D7B3" d="M 2,2 C 1.446,2 1,2.446 1,3 V 3.5 C 1,2.946 1.446,2.5 2,2.5 H 7.5 C 9,2.5 9.5,4.5 11,4.5 H 20 C 20.554,4.5 21,4.946 21,5.5 V 5 C 21,4.446 20.554,4 20,4 H 11 C 9.5,4 9,2 7.5,2 Z"/>
 <path style="fill:#313D38" d="M 2,8 C 1.446,8 1,8.446 1,9 V 9.654 L 18.918,20 H 20 C 20.554,20 21,19.554 21,19 V 18.701 L 2.4629,8 Z M 5.9277,8 21,16.701 V 14.201 L 10.258,8 Z M 13.723,8 21,12.201 V 9.701 L 18.053,8 Z M 1,11.654 V 14.154 L 11.125,20 H 15.453 Z M 1,16.154 V 18.654 L 3.3301,20 H 7.6602 Z"/>
</svg>
